X: 16967
T: Hayden's Rock
R: reel
M: 4/4
K: Edorian
|:E3G E2DB,|DDGE- EEDB,|DEED E2DB,|GAAE GE2z|
AdBG A2GE|G3A- AEGA|AE~E2 ~G2AG|1 B2B2 GEDB,:|2 B4 zAB/c/d||
|:e3g e2dB|AAdB zAAG|EGGE GGEG-|GEGA Bdgf|
dBAE GEEd-|dBAE GEED|~E2GE ~G2AG|B4 zAB/c/d:|

